X: 13
T: Brighouse Feast
C: Ian Findlay
P: Tune for "St. Columba's Reel"
B: Roy Goldring "14 Social Dances for 2000"
R: reel
Z: 2015 John Chambers <jc:trillian.mit.edu>
M: C
L: 1/8
K: D
fe |\
"D"dcde f2ed | "G"BcdB "D/f#"A2FG | "D"ABde fgaf | "Em"g2e2 e2fe |
"D"dcde f2ed | "G"BcdB "D/f#"A2dc | "A7"Bagf "D"edcd | "A7"egfe "D"d2 |]
fg |\
"D"agfe defg | "D"afed "G"B2cd | "D"ABdf afed | "A7"f2e2 e2fg |
"D"agfe defg | "D"afed "Em"B2cB | "A7"Acea geag | "D"f2"G"d2 "D"d2 :|

%%sep 1 1 500
%%sep 1 1 500

